X:1
T:Silesius, 88.88.88
T:Silesius, 88.88.88
T:Arthur Henry Mann (1850-1929)
T:Public Domain Courtesy of the Cyber Hymnal™
C:Arthur Henry Mann (1850-1929)
Z:Public Domain
Z:Courtesy of the Cyber Hymnal™
%%score ( 1 2 ) ( 3 4 )
L:1/8
Q:1/4=110
M:4/4
K:Eb
V:1 treble 
V:2 treble 
V:3 bass 
V:4 bass 
V:1
 [EG]2 | [DF]2 [EG]2 [GB]3 [FA] | [DG]2 [DF]2 E2 [DF]2 | G2 [^F=A]2 [GB]2 [Ge]2 | %4
 [Bd]2 [=Ac]2 B2 [FB]2 | [Ee]3 [EG] [DG]2 [DG]2 | [Cc]3 [B,=E] [CF]2 [EG]2 | %7
 [FA]2 [EB]2 [Ec]2 [EA]2 | [CF]2 [CE]2 !fermata!D2 [EG]2 | [DF]2 [EG]2 [GB]3 [FA] | %10
 [DG]2 [DF]2 E2 E2 | [Ec]2 [Fd]2 [Ee]2 [FA]2 | [DG]2 [DF]2 !fermata!E2 |] %13
V:2
 x2 | x8 | x4 E2 x2 | (EG) x6 | x4 B2 x2 | x8 | x8 | x8 | x4 D2 x2 | x8 | x4 E2 E2 | x8 | x4 E2 |] %13
V:3
 [E,B,]2 | [A,B,]2 [G,B,]2 [F,C]3 [F,C] | B,2 [B,,A,]2 [C,G,]2 [B,,B,]2 | %3
 [E,B,]2 [D,D]2 [G,D]2 [E,C]2 | [F,F]2 [F,E]2 [B,D]2 [A,D]2 | [G,B,]3 [G,B,] [G,=B,]2 [F,B,]2 | %6
 [=E,G,]3 [G,B,] [F,A,]2 [C,C]2 | [F,C]2 [G,_D]2 [A,C]2 [A,C]2 | %8
 [A,,A,]2 [=A,,F,]2 !fermata![B,,B,]2 [E,B,]2 | [A,B,]2 [G,B,]2 [F,C]3 [F,C] | %10
 B,2 [B,,A,]2 [C,G,]2 [E,_D]2 | [A,C]2 [A,_C]2 [G,B,]2 [F,=C]2 | B,2 [B,,B,]2 !fermata![E,G,]2 |] %13
V:4
 x2 | x8 | B,2 x6 | x8 | x8 | x8 | x8 | x8 | x8 | x8 | B,2 x6 | x8 | B,2 x4 |] %13

